modules/themify-icons/icons/map.svg

<?xml version="1.0" encoding="utf-8"?>
<!-- Generated by IcoMoon.io -->
<!DOCTYPE svg PUBLIC "-//W3C//DTD SVG 1.1//EN" "http://www.w3.org/Graphics/SVG/1.1/DTD/svg11.dtd">
<svg version="1.1" xmlns="http://www.w3.org/2000/svg" xmlns:xlink="http://www.w3.org/1999/xlink" width="17" height="17" viewBox="0 0 17 17">
<g>
</g>
	<path d="M10.499 4.438l-4.902-1.418-5.597-0.020v11h5.348l5.196 1.479 5.456-1.605v-11.041l-5.501 1.605zM6 4.177l4 1.157v8.95l-4-1.139v-8.968zM1 4h4v9.017l-4-0.017v-9zM15 13.126l-4 1.177v-8.969l4-1.167v8.959z" fill="#000000" />
</svg>

<svg xmlns="http://www.w3.org/2000/svg" width="17" height="17"><path d="M10.499 4.438L5.597 3.02 0 3v11h5.348l5.196 1.479L16 13.874V2.833l-5.501 1.605zM6 4.177l4 1.157v8.95l-4-1.139V4.177zM1 4h4v9.017L1 13V4zm14 9.126l-4 1.177V5.334l4-1.167v8.959z"/></svg>
